packages/foundations/assets/icons/functional/images/transportation/train_and_car_20_inverted.svg

<svg width="20" height="20" viewBox="0 0 20 20" fill="none" xmlns="http://www.w3.org/2000/svg">
<g clip-path="url(#clip0_2214_6814)">
<path fill-rule="evenodd" clip-rule="evenodd" d="M3.01049 15.2005C3.71149 15.7055 4.20949 16.0485 4.50349 16.2285C4.94349 16.4995 5.50049 16.6985 6.16149 16.7425H7.49949V18.0005H5.50249C5.02649 18.0005 4.62849 17.6675 4.52749 17.2215C3.92749 16.7955 3.40949 16.1525 3.01049 15.2005ZM13.5445 9.50051C13.6335 9.50151 13.7225 9.50151 13.8095 9.50151H14.5455C14.7139 9.50189 14.8683 9.50226 15.0036 9.50264L15.2469 9.50339C15.2827 9.50351 15.316 9.50364 15.3465 9.50376L15.4955 9.50451C16.0725 9.50951 16.6425 9.96551 16.7735 10.4765C16.8615 10.8175 17.0475 11.1455 17.3325 12.4615L17.4905 12.9985H17.9995V14.9985L17.6195 15.0005C17.5805 15.3465 17.5525 15.5675 17.5335 15.6645C17.5255 15.7085 17.5135 15.7555 17.4995 15.8035V17.9985H15.4995V17.0915L15.4055 17.1265C14.6035 17.2455 13.8015 17.3055 12.9995 17.3055C12.1975 17.3055 11.3955 17.2465 10.5935 17.1265L10.4995 17.0925V17.9985H8.49949V15.8095C8.49849 15.8065 8.49749 15.8025 8.49649 15.7985C8.47349 15.7125 8.43549 15.4455 8.38349 14.9995H7.99949V12.9995H8.50749L8.66549 12.4615L9.18849 10.5855C9.35149 10.0285 9.83649 9.50051 10.6225 9.50051H13.5445ZM7.47749 1.99951C11.1615 1.99951 12.9515 4.50251 12.9975 8.00551V8.49951H11.0335C11.1145 8.21551 11.3585 7.11351 11.4025 6.81751C11.5305 5.95351 10.7295 4.75451 10.0695 4.45251C9.40949 4.15051 8.55449 3.99951 7.50249 3.99951C6.34849 3.99951 5.43049 4.18151 4.74849 4.54551C3.97549 4.95851 3.46949 5.89651 3.60449 6.82151C3.80049 7.76851 3.92549 8.33251 3.97849 8.51351C4.13749 9.05951 4.57449 9.47551 5.11949 9.61251C6.08849 9.78651 6.88349 9.87451 7.50249 9.87851C7.78149 9.88051 8.09549 9.85951 8.42649 9.82751C8.34949 9.97651 8.28049 10.1325 8.23049 10.3025L7.74849 12.0305C7.31849 12.1425 7.00049 12.5335 7.00049 12.9985V14.9985C7.00049 15.0855 7.01249 15.1685 7.03349 15.2485H6.41149C5.93749 15.2485 5.46549 15.0735 5.15049 14.8625C4.83549 14.6515 4.08949 14.1325 3.50849 13.7035C3.12149 13.4175 2.74049 13.1175 2.36649 12.8055C2.12249 11.4945 2.00049 10.5615 2.00049 10.0075V8.00551C2.00049 4.50151 3.70849 1.99951 7.47749 1.99951ZM10.1455 13.8875C9.87949 13.8165 9.60449 13.9755 9.53349 14.2415C9.46249 14.5075 9.62049 14.7825 9.88749 14.8535L10.8535 15.1125C11.1195 15.1835 11.3945 15.0255 11.4655 14.7585C11.5365 14.4925 11.3785 14.2175 11.1115 14.1465L10.1455 13.8875ZM15.8535 13.8875L14.8875 14.1465C14.6205 14.2175 14.4625 14.4915 14.5335 14.7585C14.6045 15.0255 14.8785 15.1835 15.1455 15.1125L16.1115 14.8535C16.3785 14.7825 16.5365 14.5085 16.4655 14.2415C16.3945 13.9745 16.1205 13.8165 15.8535 13.8875ZM4.76549 10.7885C4.40549 10.9085 4.19649 11.2755 4.26549 11.6385L4.82949 13.3315C4.99249 13.6635 5.37949 13.8315 5.73949 13.7115C6.09949 13.5915 6.30849 13.2245 6.23949 12.8615L5.67549 11.1685C5.51249 10.8365 5.12549 10.6685 4.76549 10.7885ZM15.3995 10.9995H10.5995L10.0095 12.9995H15.9995L15.3995 10.9995Z" fill="#1A1C1F"/>
</g>
<defs>
<clipPath id="clip0_2214_6814">
<rect width="20" height="20" fill="white"/>
</clipPath>
</defs>
</svg>

<svg xmlns="http://www.w3.org/2000/svg" width="20" height="20" fill="none"><g clip-path="url(#a)"><path fill="#1A1C1F" fill-rule="evenodd" d="M3.01 15.2q1.053.759 1.493 1.029c.44.27.997.47 1.658.514H7.5V18H5.502a1 1 0 0 1-.975-.78c-.6-.425-1.118-1.069-1.517-2.02m10.534-5.7q.135.003.265.002h1.195l.243.001h.1l.149.002c.577.005 1.146.46 1.277.971.088.341.274.67.56 1.985l.158.537H18v2l-.38.003q-.06.519-.087.664a1 1 0 0 1-.034.139v2.194h-2v-.907l-.094.035a16.4 16.4 0 0 1-4.811 0l-.095-.034V18h-2v-2.19l-.003-.01a9 9 0 0 1-.113-.8H8v-2h.508l.158-.538.523-1.876c.163-.557.648-1.084 1.435-1.084zM7.477 2c3.685 0 5.474 2.503 5.52 6.006V8.5h-1.963a26 26 0 0 0 .368-1.682c.129-.864-.672-2.063-1.332-2.365Q9.08 4 7.502 4q-1.731 0-2.754.546a2.27 2.27 0 0 0-1.144 2.276q.294 1.42.374 1.692c.16.546.596.962 1.141 1.099q1.455.26 2.383.266c.28.002.593-.02.924-.051a2.7 2.7 0 0 0-.196.475l-.482 1.727c-.43.113-.748.504-.748.969v2q0 .13.033.25h-.622c-.474 0-.946-.176-1.26-.386a54 54 0 0 1-1.643-1.16 25 25 0 0 1-1.142-.897Q2 10.839 2 10.008V8.006C2 4.502 3.708 2 7.477 2m2.669 11.888a.501.501 0 0 0-.259.966l.966.259a.5.5 0 0 0 .258-.966zm5.708 0-.966.258a.5.5 0 1 0 .258.966l.965-.258a.5.5 0 1 0-.258-.966m-11.089-3.1a.75.75 0 0 0-.5.85l.564 1.694a.75.75 0 0 0 1.41-.47l-.564-1.694a.75.75 0 0 0-.91-.38M15.4 11h-4.8l-.59 2H16z" clip-rule="evenodd"/></g><defs><clipPath id="a"><path fill="#fff" d="M0 0h20v20H0z"/></clipPath></defs></svg>
